config/eww/img/battery-beige.svg

<?xml version="1.0" encoding="UTF-8" standalone="no"?>
<svg
   version="1.0"
   id="glyph_󰂄"
   x="0px"
   y="0px"
   width="50px"
   height="100px"
   sodipodi:docname="battery-beige.svg"
   inkscape:version="1.3 (0e150ed6c4, 2023-07-21)"
   xmlns:inkscape="http://www.inkscape.org/namespaces/inkscape"
   xmlns:sodipodi="http://sodipodi.sourceforge.net/DTD/sodipodi-0.dtd"
   xmlns="http://www.w3.org/2000/svg"
   xmlns:svg="http://www.w3.org/2000/svg">
  <defs
     id="defs1" />
  <sodipodi:namedview
     id="namedview1"
     pagecolor="#ffffff"
     bordercolor="#000000"
     borderopacity="0.25"
     inkscape:showpageshadow="2"
     inkscape:pageopacity="0.0"
     inkscape:pagecheckerboard="0"
     inkscape:deskcolor="#d1d1d1"
     inkscape:zoom="5.12"
     inkscape:cx="24.902344"
     inkscape:cy="49.902344"
     inkscape:window-width="1896"
     inkscape:window-height="1000"
     inkscape:window-x="10"
     inkscape:window-y="70"
     inkscape:window-maximized="1"
     inkscape:current-layer="glyph_󰂄" />
  <g
     id="󰂄"
     style="fill:#afbea2;fill-opacity:1">
    <path
       style="fill:#afbea2;stroke-width:0px;fill-opacity:1"
       d="M44.580078000000000 16.601562999999999 C42.822265499999958 16.601562999999970 39.306640499999958 16.601562999999970 37.548827999999958 16.601562999999970 C37.548827999999958 14.550781749999970 37.548827999999958 10.449219249999970 37.548827999999958 8.398437999999970 C31.298827999999958 8.398437999999970 18.798827999999958 8.398437999999970 12.548827999999958 8.398437999999970 C12.548827999999958 10.449219249999970 12.548827999999958 14.550781749999970 12.548827999999958 16.601562999999970 C10.791015499999958 16.601562999999970 7.275390499999958 16.601562999999970 5.517577999999958 16.601562999999970 Q3.369141000000013 16.601562999999970 1.708984500000042 18.261718999999999 Q0.048827999999958 19.921875000000028 0.048827999999958 22.265625000000028 C0.048827999999958 43.554687666666638 0.048827999999958 70.166015999999985 0.048827999999958 86.132813000000027 Q0.048827999999958 88.476562999999970 1.708984500000042 90.039062999999970 Q3.369141000000013 91.601562999999970 5.517577999999958 91.601562999999970 C18.473307333333310 91.601562999999970 34.667968999999971 91.601562999999970 44.384766000000013 91.601562999999970 Q46.728516000000013 91.601562999999970 48.388672000000042 90.039062999999970 Q50.048827999999958 88.476562999999970 50.048827999999958 86.132813000000027 C50.048827999999958 64.843750333333361 50.048827999999958 38.232422000000014 50.048827999999958 22.265625000000028 Q50.048827999999958 19.921875000000028 48.388672000000042 18.261718999999999 Q46.728516000000013 16.601562999999970 44.580077999999958 16.601562999999970 zM20.947265999999999 83.398437999999999 C20.947266000000013 77.636719250000027 20.947266000000013 66.113281749999970 20.947266000000013 60.351562999999970 C18.847656499999971 60.351562999999970 14.648437500000000 60.351562999999970 12.548827999999958 60.351562999999970 C16.699218750000000 52.539062999999970 25.000000249999971 36.914062999999970 29.150391000000013 29.101562999999970 C29.150391000000013 34.863281749999970 29.150391000000013 46.386719249999970 29.150391000000013 52.148437999999970 C31.250000249999971 52.148437999999970 35.449218750000000 52.148437999999970 37.548827999999958 52.148437999999970 C33.398437500000000 59.960937999999970 25.097656499999971 75.585938000000027 20.947266000000013 83.398438000000027 z"
       id="path_󰂄_0" />
  </g>
</svg>

<?xml version="1.0" encoding="UTF-8" standalone="no"?>
<svg
   version="1.0"
   id="glyph_󰂄"
   x="0px"
   y="0px"
   width="100"
   height="100"
   sodipodi:docname="battery-beige.svg"
   inkscape:version="1.3.2 (091e20ef0f, 2023-11-25, custom)"
   xmlns:inkscape="http://www.inkscape.org/namespaces/inkscape"
   xmlns:sodipodi="http://sodipodi.sourceforge.net/DTD/sodipodi-0.dtd"
   xmlns="http://www.w3.org/2000/svg"
   xmlns:svg="http://www.w3.org/2000/svg">
  <defs
     id="defs1" />
  <sodipodi:namedview
     id="namedview1"
     pagecolor="#ffffff"
     bordercolor="#000000"
     borderopacity="0.25"
     inkscape:showpageshadow="2"
     inkscape:pageopacity="0.0"
     inkscape:pagecheckerboard="0"
     inkscape:deskcolor="#d1d1d1"
     inkscape:zoom="5.12"
     inkscape:cx="24.902344"
     inkscape:cy="50"
     inkscape:window-width="1894"
     inkscape:window-height="1022"
     inkscape:window-x="10"
     inkscape:window-y="46"
     inkscape:window-maximized="1"
     inkscape:current-layer="󰂄" />
  <g
     id="󰂄"
     style="fill:#afbea2;fill-opacity:1"
     transform="translate(24.951172,-0.398438)">
    <path
       style="fill:#afbea2;fill-opacity:1;stroke-width:0px"
       d="m 44.580078,16.601563 c -1.757813,0 -5.273438,0 -7.03125,0 0,-2.050781 0,-6.152344 0,-8.203125 -6.25,0 -18.75,0 -25,0 0,2.050781 0,6.152344 0,8.203125 -1.757813,0 -5.2734375,0 -7.03125,0 q -2.148437,0 -3.8085935,1.660156 -1.6601565,1.660156 -1.6601565,4.003906 c 0,21.289063 0,47.900391 0,63.867188 q 0,2.34375 1.6601565,3.90625 1.6601565,1.5625 3.8085935,1.5625 c 12.955729,0 29.150391,0 38.867188,0 q 2.34375,0 4.003906,-1.5625 1.660156,-1.5625 1.660156,-3.90625 c 0,-21.289063 0,-47.900391 0,-63.867188 q 0,-2.34375 -1.660156,-4.003906 -1.660156,-1.660156 -3.808594,-1.660156 z M 20.947266,83.398438 c 0,-5.761719 0,-17.285156 0,-23.046875 -2.09961,0 -6.298828,0 -8.398438,0 4.150391,-7.8125 12.451172,-23.4375 16.601563,-31.25 0,5.761719 0,17.285156 0,23.046875 2.099609,0 6.298828,0 8.398437,0 -4.150391,7.8125 -12.451172,23.4375 -16.601562,31.25 z"
       id="path_󰂄_0" />
  </g>
</svg>
